packages/icons/svgs/duotone/Source=bulb-leaf.svg

<svg width="24" height="24" viewBox="0 0 24 24" fill="none" xmlns="http://www.w3.org/2000/svg">
<g opacity="0.5">
<path fill-rule="evenodd" clip-rule="evenodd" d="M12 6C12.5523 6 13 6.44772 13 7V20C13 20.5523 12.5523 21 12 21C11.4477 21 11 20.5523 11 20V7C11 6.44772 11.4477 6 12 6Z" fill="black" style="fill:black;fill-opacity:1;"/>
<path fill-rule="evenodd" clip-rule="evenodd" d="M11 12C11 9.23858 13.2386 7 16 7H17C17.5523 7 18 7.44772 18 8V10C18 12.7614 15.7614 15 13 15H12C11.4477 15 11 14.5523 11 14V12ZM16 9C14.3431 9 13 10.3431 13 12V13C14.6569 13 16 11.6569 16 10V9Z" fill="black" style="fill:black;fill-opacity:1;"/>
</g>
<path fill-rule="evenodd" clip-rule="evenodd" d="M7 20C7 19.4477 7.44772 19 8 19H16C16.5523 19 17 19.4477 17 20C17 20.5523 16.5523 21 16 21H8C7.44772 21 7 20.5523 7 20Z" fill="black" style="fill:black;fill-opacity:1;"/>
<path fill-rule="evenodd" clip-rule="evenodd" d="M2 10C2 4.47714 6.47714 0 12 0C17.5229 0 22 4.47714 22 10C22 13.7027 19.9835 16.9237 17 18.6506V23C17 23.5523 16.5523 24 16 24H8C7.44772 24 7 23.5523 7 23V18.6506C4.01649 16.9237 2 13.7027 2 10ZM12 2C7.5817 2 4 5.5817 4 10C4 13.1358 5.80947 15.8461 8.44558 17.1582C8.78526 17.3272 9 17.674 9 18.0534V22H15V18.0534C15 17.674 15.2147 17.3272 15.5544 17.1582C18.1905 15.8461 20 13.1358 20 10C20 5.5817 16.4183 2 12 2Z" fill="black" style="fill:black;fill-opacity:1;"/>
</svg>

<svg xmlns="http://www.w3.org/2000/svg" width="24" height="24" viewBox="0 0 24 24"><g fill-rule="evenodd" clip-rule="evenodd" opacity=".5"><path d="M12 6a1 1 0 0 1 1 1v13a1 1 0 1 1-2 0V7a1 1 0 0 1 1-1"/><path d="M11 12a5 5 0 0 1 5-5h1a1 1 0 0 1 1 1v2a5 5 0 0 1-5 5h-1a1 1 0 0 1-1-1zm5-3a3 3 0 0 0-3 3v1a3 3 0 0 0 3-3z"/></g><path fill-rule="evenodd" d="M7 20a1 1 0 0 1 1-1h8a1 1 0 1 1 0 2H8a1 1 0 0 1-1-1" clip-rule="evenodd"/><path fill-rule="evenodd" d="M2 10C2 4.477 6.477 0 12 0s10 4.477 10 10c0 3.703-2.017 6.924-5 8.65V23a1 1 0 0 1-1 1H8a1 1 0 0 1-1-1v-4.35A9.98 9.98 0 0 1 2 10m10-8a8 8 0 0 0-8 8 7.99 7.99 0 0 0 4.446 7.158 1 1 0 0 1 .554.895V22h6v-3.947a1 1 0 0 1 .554-.895A7.99 7.99 0 0 0 20 10a8 8 0 0 0-8-8" clip-rule="evenodd"/></svg>
